icon-svg/battery-charged.svg

<svg xmlns="http://www.w3.org/2000/svg" viewBox="0 0 24 24"><path fill="#44739e" d="M13.909 8.991c-.488.124-1.088.27-1.583.39-.428.1-.87.211-.927.23l-.457.133.167-.414.01-.029c.063-.165.173-.466.3-.818.389-1.058.715-2.033.855-2.373h-2.159L9.8 7.524l-1.04 4.034 2.984-.768-1.958 7.1c1.252-2.569 4.06-8.77 4.089-8.829zm7.018.246a1.077 1.077 0 0 0-1.074 1.073v3.09a1.074 1.074 0 0 0 2.147 0v-3.09a1.076 1.076 0 0 0-1.073-1.073m-4.499-2.489h-3.885c-.091.236-.21.554-.335.889h4.22a1.919 1.919 0 0 1 1.916 1.916v4.695a1.919 1.919 0 0 1-1.916 1.917h-5.517l-.433.889h5.95a2.809 2.809 0 0 0 2.806-2.806V9.553a2.809 2.809 0 0 0-2.806-2.805m-13.538 7.5V9.553a1.918 1.918 0 0 1 1.916-1.916h4.506l.056-.217.15-.672H4.806A2.809 2.809 0 0 0 2 9.553v4.695a2.809 2.809 0 0 0 2.806 2.806h4.968l.215-.889H4.806a1.918 1.918 0 0 1-1.916-1.917m5.253-2.071.995-3.866h-3.76a1.915 1.915 0 0 0-1.909 1.909v3.266a1.914 1.914 0 0 0 1.909 1.908h4.8l.963-3.989zm6.124-2.93c-.113.257-.635 1.33-2.981 6.147h4.474a1.914 1.914 0 0 0 1.909-1.908V10.22a1.915 1.915 0 0 0-1.909-1.909h-3.8l-.12.326c-.06.162-.116.313-.164.445l.544-.133c.667-.162 1.527-.37 2.038-.509l.467-.127-.447.939z" class="cls-1" data-name="Colore riempimento 1"/></svg>

<svg xmlns="http://www.w3.org/2000/svg" width="24" height="24" viewBox="0 0 24 24">
  <path id="Colore_riempimento_1" fill="#44739e" data-name="Colore riempimento 1" class="cls-1" d="m 13.909,8.991 c -0.488,0.124 -1.088,0.27 -1.583,0.39 -0.428,0.1 -0.87,0.211 -0.927,0.23 L 10.942,9.744 11.109,9.33 11.119,9.301 C 11.182,9.136 11.292,8.835 11.419,8.483 11.808,7.425 12.134,6.45 12.274,6.11 H 10.115 L 9.8,7.524 8.76,11.558 11.744,10.79 9.786,17.89 c 1.252,-2.569 4.06,-8.77 4.089,-8.829 z m 7.018,0.246 A 1.077,1.077 0 0 0 19.853,10.31 V 13.4 A 1.074,1.074 0 0 0 22,13.4 V 10.31 A 1.076,1.076 0 0 0 20.927,9.237 Z M 16.428,6.748 h -3.885 c -0.091,0.236 -0.21,0.554 -0.335,0.889 h 4.22 a 1.919,1.919 0 0 1 1.916,1.916 v 4.695 a 1.919,1.919 0 0 1 -1.916,1.917 h -5.517 l -0.433,0.889 h 5.95 a 2.809,2.809 0 0 0 2.806,-2.806 V 9.553 A 2.809,2.809 0 0 0 16.428,6.748 Z M 2.89,14.248 V 9.553 A 1.918,1.918 0 0 1 4.806,7.637 H 9.312 L 9.368,7.42 9.518,6.748 H 4.806 A 2.809,2.809 0 0 0 2,9.553 v 4.695 a 2.809,2.809 0 0 0 2.806,2.806 H 9.774 L 9.989,16.165 H 4.806 A 1.918,1.918 0 0 1 2.89,14.248 Z M 8.143,12.177 9.138,8.311 H 5.378 A 1.915,1.915 0 0 0 3.469,10.22 v 3.266 a 1.914,1.914 0 0 0 1.909,1.908 h 4.8 l 0.963,-3.989 z m 6.124,-2.93 c -0.113,0.257 -0.635,1.33 -2.981,6.147 h 4.474 a 1.914,1.914 0 0 0 1.909,-1.908 V 10.22 A 1.915,1.915 0 0 0 15.76,8.311 h -3.8 L 11.84,8.637 C 11.78,8.799 11.724,8.95 11.676,9.082 L 12.22,8.949 c 0.667,-0.162 1.527,-0.37 2.038,-0.509 l 0.467,-0.127 -0.447,0.939 z"/>
</svg>
